assets/icons/traton/profile.svg

<svg xmlns="http://www.w3.org/2000/svg" width="32" height="32" viewBox="0 0 32 32" fill="none">
<path d="M25.6777 18L25.9541 18.5518L27.8936 22.4209L28 22.6318V28H26V23.1045L24.4424 20H7.55762L6 23.1152V28H4V22.6436L4.10547 22.4316L6.32129 18H25.6777ZM16 2C19.866 2 23 5.13401 23 9C23 12.866 19.866 16 16 16C12.134 16 9 12.866 9 9C9 5.13401 12.134 2 16 2ZM16 4C13.2386 4 11 6.23858 11 9C11 11.7614 13.2386 14 16 14C18.7614 14 21 11.7614 21 9C21 6.23858 18.7614 4 16 4Z" fill="#001D21" />
</svg>

<svg xmlns="http://www.w3.org/2000/svg" fill="none" viewBox="0 0 32 32"><path fill="#001d21" d="m25.7 18 .3.6 1.9 3.8.1.2V28h-2v-4.9L24.4 20H7.6L6 23.1V28H4v-5.4l.1-.2L6.3 18zM16 2a7 7 0 1 1 0 14 7 7 0 0 1 0-14m0 2a5 5 0 1 0 0 10 5 5 0 0 0 0-10"/></svg>
